modules/ui/install/js/ui/buttons/icons/images/ui-chat-black.svg

<svg xmlns="http://www.w3.org/2000/svg" width="24" height="24" viewBox="0 0 24 24"><path fill="#525C69" d="M13.7447183,13.6296053 L13.7447183,13.6257162 L9.58934862,13.6257162 C8.72579228,14.6095544 7.6443662,15.8267136 7.35519362,16.0639238 C6.86003521,16.4761244 6.62235915,16.4839018 6.62235915,16.2194709 L6.62235915,13.6257162 L5.50528169,13.6257162 C4.67737676,13.6257162 4,12.9607505 4,12.1480152 L4,7.47770104 C4,6.66496571 4.67737676,6 5.50528169,6 L13.7447183,6 C14.5726233,6 15.25,6.66496571 15.25,7.47770104 L15.25,12.1519035 C15.25,12.9646396 14.5726233,13.6296053 13.7447183,13.6296053 Z M16.313941,9 L17.8420353,9 C18.6546512,9 19.3163528,9.66457164 19.3124831,10.4768253 L19.3124831,15.1521446 C19.3124831,15.9643983 18.6507816,16.62897 17.8420353,16.62897 L16.7508081,16.62897 L16.7508081,19.2211876 C16.7508081,19.481575 16.5225018,19.4776889 16.0349322,19.0657318 C15.7563211,18.828663 14.6960508,17.6122251 13.852478,16.62897 L9.79326793,16.62897 C9.50304797,16.62897 9.22830637,16.5395832 9,16.3919003 L10.5246223,14.7945968 L14.150835,14.794597 C15.3426717,14.794597 16.313941,13.8152283 16.313941,12.622109 L16.313941,9 Z"/></svg>

<svg xmlns="http://www.w3.org/2000/svg" width="24" height="24" viewBox="0 0 24 24"><path fill="#525C69" d="M13.745 13.63v-.004H9.589c-.863.984-1.945 2.2-2.234 2.438-.495.412-.733.42-.733.155v-2.593H5.505C4.677 13.626 4 12.96 4 12.148v-4.67C4 6.665 4.677 6 5.505 6h8.24c.828 0 1.505.665 1.505 1.478v4.674c0 .813-.677 1.478-1.505 1.478zM16.314 9h1.528c.813 0 1.474.665 1.47 1.477v4.675c0 .812-.661 1.477-1.47 1.477h-1.091v2.592c0 .26-.228.257-.716-.155-.279-.237-1.339-1.454-2.183-2.437H9.793c-.29 0-.565-.09-.793-.237l1.525-1.597h3.626c1.192 0 2.163-.98 2.163-2.173V9z"/></svg>
